X: 3
T:Brangill of Poictu
M:C
L:1/4
S:Dauney #83
Z:P
K:D
D/C/D/E/ F/E/F/G/|A/G/A/B/ A>A|B/c/ d c B|A B A/B/A/B/||gfec|d/c/d/e/ f/
g/ a/g/4f/4|g/f/e/d/ c/d/e/c/|d2 D2||
